X: 1
T: Og skal vi gaa til fremmed lande, ...
O: Trad Fan\o, Danmark
S: Harald Haugaard
N: from a handwritten MS
Z: John Chambers <jc@trillian.mit.edu>
M: 2/4
L: 1/16
K: D
A2 \
| d2dd d2e2 | e2e2 f4 \
| a2af g4 | fffe d2 :: a2 \
| a3a a2a2 | a2a2 a4 |
| e2e2 a4 | g2gf e2ef \
| g2g2 e2ed | cccB A4 \
| d2df a4 |["1-N" e2ef d2 :|["Coda"e4 A4 | d2d2 d4 |]
